X: 395
T: The Strolling Mason
M:C
L:1/8
B:O'Neill's 395
N:"Moderate."
N:The last note of each section is a half note (should be dotted.)
N:"collected by J. O'Neill"
Z:Transcribed by Chris Falt, cfalt@trytel.com
K:G
EG|ABAG E2D2|EGAB c2BA|GABG A2GE|D4-.D2EG|
ABAG E2D2|EGAB c2Bc|dedA B2A2|G4||
BA|GABc d2Bd|e2ce d2BA|GABC A2GE|D4-D2EG|
ABAG E2D2|EGAB c2Bc|dedA B2A2|G4||


